packages/ffe-icons/icons/open/300/sm/local_hospital.svg

<svg xmlns="http://www.w3.org/2000/svg" height="20" viewBox="0 -960 960 960" width="20"><path d="M447.001-447.001V-331q0 13.846 9.577 23.423 9.576 9.576 23.422 9.576t23.422-9.576q9.577-9.577 9.577-23.423v-116.001H629q13.846 0 23.423-9.577 9.576-9.576 9.576-23.422t-9.576-23.422q-9.577-9.577-23.423-9.577H512.999V-629q0-13.846-9.577-23.423-9.576-9.576-23.422-9.576t-23.422 9.576q-9.577 9.577-9.577 23.423v116.001H331q-13.846 0-23.423 9.577-9.576 9.576-9.576 23.422t9.576 23.422q9.577 9.577 23.423 9.577h116.001Zm-218.692 283q-27.008 0-45.658-18.65-18.65-18.65-18.65-45.658v-503.382q0-27.008 18.65-45.658 18.65-18.65 45.658-18.65h503.382q27.008 0 45.658 18.65 18.65 18.65 18.65 45.658v503.382q0 27.008-18.65 45.658-18.65 18.65-45.658 18.65H228.309Zm0-51.999h503.382q4.616 0 8.463-3.846 3.846-3.847 3.846-8.463v-503.382q0-4.616-3.846-8.463-3.847-3.846-8.463-3.846H228.309q-4.616 0-8.463 3.846-3.846 3.847-3.846 8.463v503.382q0 4.616 3.846 8.463 3.847 3.846 8.463 3.846ZM216-744v528-528Z"/></svg>

<svg xmlns="http://www.w3.org/2000/svg" height="20" viewBox="0 -960 960 960" width="20"><path d="M447-447v116q0 13.85 9.58 23.42Q466.15-298 480-298q13.85 0 23.42-9.58Q513-317.15 513-331v-116h116q13.85 0 23.42-9.58Q662-466.15 662-480q0-13.85-9.58-23.42Q642.85-513 629-513H513v-116q0-13.85-9.58-23.42Q493.85-662 480-662q-13.85 0-23.42 9.58Q447-642.85 447-629v116H331q-13.85 0-23.42 9.58Q298-493.85 298-480q0 13.85 9.58 23.42Q317.15-447 331-447h116ZM228.31-164q-27.01 0-45.66-18.65Q164-201.3 164-228.31v-503.38q0-27.01 18.65-45.66Q201.3-796 228.31-796h503.38q27.01 0 45.66 18.65Q796-758.7 796-731.69v503.38q0 27.01-18.65 45.66Q758.7-164 731.69-164H228.31Zm0-52h503.38q4.62 0 8.46-3.85 3.85-3.84 3.85-8.46v-503.38q0-4.62-3.85-8.46-3.84-3.85-8.46-3.85H228.31q-4.62 0-8.46 3.85-3.85 3.84-3.85 8.46v503.38q0 4.62 3.85 8.46 3.84 3.85 8.46 3.85ZM216-744v528-528Z"/></svg>
